svgs/regular/paw-simple.svg

<svg xmlns="http://www.w3.org/2000/svg" viewBox="0 0 448 512"><!-- Font Awesome Pro 6.0.0-alpha2 by @fontawesome - https://fontawesome.com License - https://fontawesome.com/license (Commercial License) --><path d="M400 144C373.5 144 352 165.5 352 192S373.5 240 400 240S448 218.5 448 192S426.5 144 400 144ZM144 128C170.5 128 192 106.5 192 80S170.5 32 144 32S96 53.5 96 80S117.5 128 144 128ZM304 128C330.5 128 352 106.5 352 80S330.5 32 304 32S256 53.5 256 80S277.5 128 304 128ZM367.25 300.75C341 286.001 320.125 239.375 300.125 203C284.375 174.25 254.25 160 224 160S163.625 174.25 147.875 203C127.5 239.875 107.75 285.5 80.625 300.75C51.625 317.125 32 348.125 32 384C32 437 75 479.875 128 479.875C129.25 480 130.625 480 131.875 480C180.75 480 200.75 448 224 448S267.25 480 316.125 480C317.375 480 318.75 480 320 479.875C373 479.875 416 437 416 384C416 348.125 396.375 317.125 367.25 300.75ZM320 431.875H319.25L318.375 432H316.125C300.375 432 290.875 426.25 277.625 418.375C263.875 410.125 246.75 400 224 400S184.125 410.125 170.375 418.375C157.125 426.25 147.625 432 131.875 432H129.625L128.875 431.875H128C101.5 431.875 80 410.375 80 384C80 366.625 89.125 351.125 104.25 342.625C138.875 323 159.5 283.625 179.5 245.5C183 238.875 186.5 232.375 189.875 226.125C199.125 209.25 218.375 208 224 208S248.875 209.25 258.125 226.125C261.375 232 264.625 238.25 268 244.5C288.5 283.25 309.625 323.375 343.75 342.625C358.875 351.125 368 366.625 368 384C368 410.375 346.5 431.875 320 431.875ZM96 192C96 165.5 74.5 144 48 144S0 165.5 0 192S21.5 240 48 240S96 218.5 96 192Z"/></svg>

<svg xmlns="http://www.w3.org/2000/svg" viewBox="0 0 448 512"><!--! Font Awesome Pro 6.0.0-alpha3 by @fontawesome - https://fontawesome.com License - https://fontawesome.com/license (Commercial License) --><path d="M400 144c-26.5 0-48 21.5-48 48s21.5 48 48 48S448 218.5 448 192S426.5 144 400 144zM144 128c26.5 0 48-21.5 48-48s-21.5-48-48-48S96 53.5 96 80S117.5 128 144 128zM304 128c26.5 0 48-21.5 48-48s-21.5-48-48-48S256 53.5 256 80S277.5 128 304 128zM367.2 300.8c-26.25-14.75-47.12-61.38-67.12-97.76C284.4 174.3 254.3 160 224 160S163.6 174.3 147.9 203C127.5 239.9 107.8 285.5 80.63 300.8C51.63 317.1 32 348.1 32 384c0 53 43 95.88 96 95.88C129.2 480 130.7 480 131.1 480C180.8 480 200.8 448 224 448S267.2 480 316 480C317.3 480 318.8 480 320 479.9c53 0 96-42.88 96-95.88C416 348.1 396.4 317.1 367.2 300.8zM320 431.9h-.75L318.4 432h-2.25c-15.75 0-25.25-5.75-38.5-13.62C263.9 410.1 246.8 400 224 400s-39.88 10.12-53.63 18.38C157.1 426.2 147.6 432 131.9 432H129.6l-.75-.125H128c-26.5 0-48-21.5-48-47.88c0-17.38 9.125-32.88 24.25-41.38c34.63-19.62 55.25-59 75.25-97.13c3.5-6.625 7-13.12 10.38-19.38C199.1 209.2 218.4 208 224 208s24.88 1.25 34.13 18.12C261.4 232 264.6 238.2 268 244.5c20.5 38.75 41.63 78.88 75.75 98.13C358.9 351.1 368 366.6 368 384C368 410.4 346.5 431.9 320 431.9zM96 192c0-26.5-21.5-48-48-48S0 165.5 0 192s21.5 48 48 48S96 218.5 96 192z"/></svg>
